paranoia.svg

<svg xmlns="http://www.w3.org/2000/svg" viewBox="0 0 512 512" style="height: 512px; width: 512px;"><g class="" transform="translate(0,0)" style="touch-action: none;"><path d="M255.47 18.156c-84.31 0-168.623 24.647-236.574 73.918v23.438c50.19-39.58 111.385-64.135 175.24-73.674-51.622 23.514-87.51 75.554-87.51 135.974 0 40.735 16.32 77.648 42.767 104.584-47.456-11.63-92.198-31.25-130.497-58.86v22.757c44.69 29.778 96.406 49.772 150.534 60.012 1.995-3.625 4.2-7.076 6.654-10.32 6.292-8.323 14.39-15.157 24.113-19.692-5.343-11.957-8.326-25.697-8.326-40.293 0-3.03.143-6.017.394-8.965-9.013-12.725-14.327-28.255-14.327-45.035 0-43.095 34.937-78.03 78.032-78.03 3.037 0 6.02.192 8.968.53-9.23 8.076-15.063 19.928-15.063 33.156 0 6.005 1.205 11.727 3.38 16.944.903-.048 1.81-.08 2.722-.08.833 0 1.66.028 2.484.068.068-.003.082-.007.15-.01 1.08-.038 2.476-.007 4.167.233 16.587 2.16 30.802 11.81 40.832 25.82 11.56-2.593 21.395-9.72 27.546-19.442C332.986 167.815 334 174.79 334 182c0 16.768-5.313 32.282-14.314 45.002.252 2.96.394 5.958.394 8.998 0 15.06-3.165 29.22-8.834 41.44 8.956 4.67 16.493 11.467 22.47 19.61 2.246 3.063 4.297 6.308 6.182 9.704 55.55-10.205 108.627-30.672 154.276-61.41V222.53c-38.516 28.083-83.647 48.018-131.56 59.796 26.408-26.93 42.7-63.814 42.7-104.514-.002-60.238-35.678-112.143-87.048-135.757 64.23 9.828 125.71 34.86 175.908 75.13v-23.59c-68.314-50.3-153.512-75.44-238.705-75.44zM.206 106.598c-.162.135-.326.267-.488.402l.487.586v-.988zm255.77 66.61c-11.795 0-22.754 6.205-31.28 17.437C216.172 201.875 210.56 218 210.56 236c0 18 5.612 34.123 14.137 45.354 8.526 11.23 19.485 17.433 31.28 17.433 11.795 0 22.75-6.203 31.277-17.433C295.78 270.124 301.39 254 301.39 236c0-18.002-5.61-34.127-14.136-45.357-8.526-11.23-19.482-17.434-31.277-17.434zm-18.248 40.394c5.636 0 10.206 10.467 10.206 23.378 0 12.912-4.57 23.38-10.207 23.38-5.64 0-10.21-10.468-10.21-23.38 0-12.91 4.57-23.378 10.21-23.378zm37.184 0c5.637 0 10.207 10.467 10.207 23.378 0 12.912-4.57 23.38-10.206 23.38-5.637 0-10.207-10.468-10.207-23.38 0-12.91 4.57-23.378 10.207-23.378zM.207 232.584l-.176.228.177.133v-.36zm209.42 59.812c-7.57 3.072-13.498 8.063-18.635 14.858-7.33 9.696-12.63 23.298-16.13 39.092-6.996 31.587-6.803 71.397-6.803 104.47V493.1h22.008v-99.274h18.69V493.1h93.666v-99.274h18.69V493.1h22.738v-42.284c0-32.736-1.074-72.096-8.71-103.533-3.82-15.718-9.29-29.36-16.494-39.176-4.895-6.67-10.388-11.61-17.052-14.773-11.274 14.492-27.46 24.14-45.62 24.14-18.447 0-34.87-9.945-46.163-24.822-.064-.083-.123-.172-.186-.256z" fill="#e67469" fill-opacity="1"></path></g></svg>

<svg xmlns="http://www.w3.org/2000/svg" viewBox="0 0 512 512" style="height: 512px; width: 512px;"><g class="" transform="translate(0,0)" style="touch-action: none;"><g transform="translate(128, 128) scale(0.5, 0.5) rotate(0, 256, 256)"><path d="M255.47 18.156C171.16 18.156 86.847 42.803 18.896 92.074L18.896 115.512C69.086 75.932 130.281 51.377 194.136 41.838C142.514 65.352 106.626 117.392 106.626 177.812C106.626 218.547 122.946 255.46 149.393 282.396C101.937 270.766 57.195 251.146 18.896 223.536L18.896 246.293C63.586 276.071 115.302 296.065 169.43 306.305C171.425 302.68 173.63 299.229 176.084 295.985C182.376 287.662 190.474 280.828 200.197 276.293C194.854 264.336 191.871 250.596 191.871 236C191.871 232.97 192.014 229.983 192.265 227.035C183.252 214.31 177.938 198.78 177.938 182C177.938 138.905 212.875 103.97 255.97 103.97C259.007 103.97 261.99 104.162 264.938 104.5C255.708 112.576 249.875 124.428 249.875 137.656C249.875 143.661 251.08 149.383 253.255 154.6C254.158 154.552 255.065 154.52 255.977 154.52C256.81 154.52 257.637 154.548 258.461 154.588C258.529 154.585 258.543 154.581 258.611 154.578C259.691 154.54 261.087 154.571 262.778 154.811C279.365 156.971 293.58 166.621 303.61 180.631C315.17 178.038 325.005 170.911 331.156 161.189C332.986 167.815 334 174.79 334 182C334 198.768 328.687 214.282 319.686 227.002C319.938 229.962 320.08 232.96 320.08 236C320.08 251.06 316.915 265.22 311.246 277.44C320.202 282.11 327.739 288.907 333.716 297.05C335.962 300.113 338.013 303.358 339.898 306.754C395.448 296.549 448.525 276.082 494.174 245.344L494.174 222.53C455.658 250.613 410.527 270.548 362.614 282.326C389.022 255.396 405.314 218.512 405.314 177.812C405.312 117.574 369.636 65.669 318.266 42.055C382.496 51.883 443.976 76.915 494.174 117.185L494.174 93.595C425.86 43.295 340.662 18.155 255.469 18.155Z" class="selected" fill="#e67469" fill-opacity="1"></path><path d="M0.206 106.598C0.044 106.733 -0.12 106.865 -0.282 107L0.205 107.586L0.205 106.598Z" class="" fill="#e67469" fill-opacity="1"></path><path d="M255.976 173.208C244.181 173.208 233.222 179.413 224.696 190.645C216.172 201.875 210.56 218 210.56 236C210.56 254 216.172 270.123 224.697 281.354C233.223 292.584 244.182 298.787 255.977 298.787C267.772 298.787 278.727 292.584 287.254 281.354C295.78 270.124 301.39 254 301.39 236C301.39 217.998 295.78 201.873 287.254 190.643C278.728 179.413 267.772 173.209 255.977 173.209Z" class="" fill="#e67469" fill-opacity="1"></path><path d="M237.728 213.602C243.364 213.602 247.934 224.069 247.934 236.98C247.934 249.892 243.364 260.36 237.727 260.36C232.087 260.36 227.517 249.892 227.517 236.98C227.517 224.07 232.087 213.602 237.727 213.602Z" class="" fill="#e67469" fill-opacity="1"></path><path d="M274.912 213.602C280.549 213.602 285.119 224.069 285.119 236.98C285.119 249.892 280.549 260.36 274.913 260.36C269.276 260.36 264.706 249.892 264.706 236.98C264.706 224.07 269.276 213.602 274.913 213.602Z" class="" fill="#e67469" fill-opacity="1"></path><path d="M0.207 232.584L0.031 232.812L0.208 232.945L0.208 232.585Z" class="" fill="#e67469" fill-opacity="1"></path><path d="M209.627 292.396C202.057 295.468 196.129 300.459 190.992 307.254C183.662 316.95 178.362 330.552 174.862 346.346C167.866 377.933 168.059 417.743 168.059 450.816L168.059 493.1L190.067 493.1L190.067 393.826L208.757 393.826L208.757 493.1L302.423 493.1L302.423 393.826L321.113 393.826L321.113 493.1L343.851 493.1L343.851 450.816C343.851 418.08 342.777 378.72 335.141 347.283C331.321 331.565 325.851 317.923 318.647 308.107C313.752 301.437 308.259 296.497 301.595 293.334C290.321 307.826 274.135 317.474 255.975 317.474C237.528 317.474 221.105 307.529 209.812 292.652C209.748 292.569 209.689 292.48 209.626 292.396Z" class="" fill="#e67469" fill-opacity="1"></path></g></g></svg>
